swiss/communes/5017.svg

<svg width="603" height="763" xmlns="http://www.w3.org/2000/svg" xmlns:xlink="http://www.w3.org/1999/xlink"><radialGradient id="b" cx="0" cy="0" r="300" gradientTransform="matrix(1.215 0 0 1.2667 203.329 244.107)" gradientUnits="userSpaceOnUse"><stop stop-color="#fff" stop-opacity=".314" offset="0"/><stop stop-color="#fff" stop-opacity=".251" offset=".19"/><stop stop-color="#6b6b6b" stop-opacity=".126" offset=".6"/><stop stop-opacity=".126" offset="1"/></radialGradient><g fill="#e20909"><path id="a" d="M1.5 1.5v460c0 165.686 134.314 300 300 300 165.685 0 300-134.314 300-300V1.5z"/></g><g fill="#fff" stroke="#000" stroke-width="2.75" stroke-linecap="round" stroke-linejoin="round"><path d="M198.586 93.683s-18.807 28.542 5.403 44.568c20.444 13.534 32.208-2.635 55.987-3.293 23.777-.659 37.18 10.319 37.18 10.319l1.729-5.269s-28.965-18.881-56.202-11.417c-27.236 7.464-43.016-14.271-44.097-34.908zM254.354 256.754c-.733-5.046-1.776-10.988-3.139-18.01 0 0-50.099-3.687-96.568-51.622-46.469-47.934-38.482-57.52-38.482-57.52s18.878-11.8 18.878-33.923c0-22.124-15.249-36.135-34.126-36.135-18.878 0-41.386 11.062-41.386 89.232 0 78.169 18.151 210.17-37.031 301.615 0 0 68.978-3.687 74.06-230.083 0 0 3.551 5.67 10.414 13.751 2.514 35.185 5.202 147.874-56.157 208.959 0 0 72.112 2.106 83.527-182.924a159.174 159.174 0 0 0 10.68 7.486c.531 32.146-2.837 114.984-47.738 165.851 0 0 69.787-1.439 71.147-153.705a129.146 129.146 0 0 0 15.94 5.277c1.344 23.24 1.742 87.809-31.179 124.829 0 0 53.621 2.103 53.783-121.136 5.554.388 11.296.42 17.229.025 1.024 17.221 1.395 61.18-18.735 85.712 0 0 39.934-15.486 50.1-82.593 3.632-23.973 2.165-33.166-1.217-35.086zm252.085-36.446c5.083 226.397 74.061 230.084 74.061 230.084-55.182-91.445-37.03-223.446-37.03-301.615 0-78.17-22.509-89.232-41.386-89.232-18.879 0-34.127 14.012-34.127 36.135 0 22.123 18.878 33.923 18.878 33.923s7.988 9.586-38.481 57.52c-46.47 47.935-96.568 51.622-96.568 51.622-1.361 7.022-2.405 12.964-3.138 18.01-3.385 1.919-4.852 11.113-1.22 35.086 10.166 67.107 50.101 82.593 50.101 82.593-20.129-24.532-19.76-68.491-18.735-85.712 5.933.395 11.676.363 17.229-.025.162 123.238 53.783 121.136 53.783 121.136-32.921-37.021-32.521-101.589-31.178-124.829a129.13 129.13 0 0 0 15.939-5.277c1.359 152.265 71.147 153.705 71.147 153.705-44.901-50.866-48.27-133.705-47.739-165.851 3.771-2.415 7.33-4.93 10.682-7.486 11.415 185.031 83.526 182.924 83.526 182.924-61.357-61.085-58.671-173.775-56.156-208.959 6.862-8.081 10.412-13.752 10.412-13.752z"/><path d="M240.146 364.564c-6.165 22.099-35.541 18.417-35.541 18.417s13.781 16.943 37.354 8.84c0 0-2.539 12.894 15.231 26.889 0 0-5.375-17.769.363-25.782 2.9-4.055 13.418-2.211 20.309-7.737 6.891-5.525-18.496-60.405-18.496-60.405s-13.055 17.678-19.22 39.778zm122.707 0c-6.165-22.1-19.22-39.78-19.22-39.78s-25.386 54.88-18.496 60.405c6.892 5.526 17.408 3.683 20.309 7.737 5.739 8.014.362 25.782.362 25.782 17.772-13.995 15.232-26.889 15.232-26.889 23.572 8.104 37.354-8.84 37.354-8.84s-29.376 3.684-35.541-18.415z"/><path d="M394.623 553.634c-39.209 0-72.608-8.113-72.608-50.885 0-42.771 32.674-204.271 42.839-233.032 10.165-28.761-5.81-42.035-25.412-42.035-12.034 0-18.59 9.719-21.864 17.23-.541-14.589 2.348-27.882 10.18-34.105 18.456-14.67 20.796-34.932 20.796-34.932.4 14.217 17.598 10.561 17.598 10.561-15.998-10.967-7.999-29.653-6.799-45.495 1.2-15.842-4-28.427-4-28.427 21.561.404 18.813-20.886 18.813-20.886-3.707 3.934-14.485 13.001-29.477 3.25S314.874 80.68 301.5 83.945c-8.516 2.08-12.373 7.33-12.053 11.93-2.564-1.319-9.696-4.192-20.555-2.366-24.424 4.106-16.951 31.67-16.951 31.67s2.178-10.324 13.07-14.012c13.303-4.504 29.043 8.85 29.043 25.811 0 16.96-28.317 22.124-28.317 22.124 30.496 12.536 42.113-8.85 42.113-8.85 0 42.034-34.853 47.197-34.853 47.197 8.714 10.324 18.878.737 18.878.737-7.889 13.667-8.657 31.842-8.187 43.188-3.667-6.705-9.93-13.691-20.13-13.691-19.605 0-35.579 13.273-25.414 42.035 10.165 28.761 42.839 190.261 42.839 233.032 0 42.771-33.4 50.885-72.609 50.885-39.208 0-53.731 13.273-64.621 33.922 0 0 38.481-25.811 76.238-10.324 37.756 15.486 71.882-16.223 71.882-16.223s-1.452 55.307-58.086 56.781c0 0 34.126 29.501 56.634-6.636 0 0-5.082 24.338 2.179 36.872 7.261 12.538 8.897 23.429 8.897 23.429s1.637-10.891 8.897-23.429c7.26-12.534 2.178-36.872 2.178-36.872 22.51 36.137 56.635 6.636 56.635 6.636-56.635-1.475-58.085-56.781-58.085-56.781s34.124 31.709 71.881 16.223 76.239 10.324 76.239 10.324c-10.888-20.65-25.411-33.923-64.619-33.923z"/><path fill="none" d="M318.156 252.646a101.443 101.443 0 0 1-.596-7.866M283.668 240.919c.253 6.668.947 11.1.947 11.1M355.352 112.514c-1.711-.032-3.577-.201-5.609-.529M333.235 103.773s-8.886 2.631-19.203-2.737c-6.905-3.593-12.25 5.499-20.044 1.368-2.814-1.491-4.357-3.905-4.541-6.53"/><path fill="none" d="M314.032 101.037c-5.161-2.686-9.451 1.715-14.542 2.383l.062.415s2.825 7.354 11.832 7.354c5.652 0 9.89-7.354 9.89-7.354l-.056-.148a30.022 30.022 0 0 1-7.186-2.65z"/><path fill="none" d="M307.743 101.096c-2.403 0-4.35 1.979-4.35 4.417 0 2.44 1.946 4.417 4.35 4.417 2.401 0 4.349-1.977 4.349-4.417 0-2.439-1.947-4.417-4.349-4.417zm0 7.244c-1.538 0-2.782-1.265-2.782-2.827 0-1.561 1.244-2.827 2.782-2.827 1.537 0 2.783 1.266 2.783 2.827 0 1.562-1.246 2.827-2.783 2.827z"/><path d="M190.28 486.684c-45.368 0-94.583 8.321-113.555 11.878h-8.088s1.396.294 3.947.793c-2.551.498-3.947.791-3.947.791h8.088c18.971 3.559 68.187 11.881 113.555 11.881 57.703 0 232.371 6.335 297.871 6.335v-38.015c-65.5 0-240.169 6.337-297.871 6.337zM471.387 480.452l16.763 12.527M471.387 518.083l16.763-12.527"/><path fill="#fcef3c" d="m489.21 481.588-1.163 17.942 1.163 17.943s37.472-10.253 65.233-10.253v-15.379c-27.761.001-65.233-10.253-65.233-10.253z"/><path fill="#fcef3c" d="M546.678 478.826v41.015s19.608-1.774 19.608-20.506-19.608-20.509-19.608-20.509zM493.871 550.009c0 3.268-2.606 5.916-5.824 5.916h0c-3.216 0-5.824-2.648-5.824-5.916V449.054c0-3.267 2.608-5.916 5.824-5.916h0c3.218 0 5.824 2.649 5.824 5.916v100.955z"/><path d="M133.178 474.691s4.507-18.923 19.829-18.923c0 0-2.253 8.41-4.958 16.296.001 0-4.505-6.306-14.871 2.627zM469.82 474.691s-4.506-18.923-19.828-18.923c0 0 2.254 8.411 4.958 16.296 0 0 4.505-6.306 14.87 2.627z"/><path d="M445.939 476.443c6.007 2.802 10.813-3.502 9.011-13.315-1.802-9.811-14.779-16.266-18.025-4.907-1.202 4.206 0 8.411-4.206 8.411-2.903 0-7.302-.92-9.708-1.54-5.851-5.635-12.387-9.079-16.128-13.879-3.761-4.822-24.296-38.306-36.339-57.343-2.963-.257-6.129-.89-9.504-2.05 0 0 .554 2.82-.672 7.254 3.002 4.364 5.964 8.485 8.432 11.556 9.013 11.213 15.249 30.772 15.249 30.772-9.012 3.506-7.211 20.325 0 21.024 7.21.701 10.216-8.409 13.82-4.904 7.861 7.638 1.802 21.723-1.203 18.22-4.515-5.269-13.819-4.905-14.42 2.803-1.386 17.798 6.01 19.622 13.219 22.429 7.211 2.801 10.815-11.913 12.619-16.119 5.898-13.764 9.614-6.31 13.219-1.401 11.115 15.126 8.413 23.125 7.21 25.929-3.004 7.007 6.609 15.416 16.825 8.409 10.214-7.01 3.604-18.921-.602-20.322-4.205-1.401-6.61-3.506-12.618-18.924 0-.001 7.812-4.906 13.821-2.103zM241.96 391.82c-3.375 1.159-6.542 1.793-9.504 2.05-12.043 19.037-32.579 52.521-36.339 57.343-3.74 4.8-10.276 8.243-16.127 13.879-2.406.62-6.805 1.54-9.708 1.54-4.206 0-3.004-4.205-4.206-8.411-3.246-11.358-16.224-4.903-18.025 4.907-1.803 9.813 3.003 16.117 9.012 13.315 6.009-2.804 13.82 2.102 13.82 2.102-6.009 15.418-8.413 17.522-12.619 18.924-4.206 1.401-10.815 13.313-.601 20.322 10.215 7.007 19.828-1.402 16.824-8.409-1.202-2.804-3.905-10.803 7.21-25.929 3.605-4.908 7.321-12.362 13.219 1.401 1.803 4.206 5.408 18.92 12.619 16.119 7.21-2.807 14.605-4.631 13.219-22.429-.601-7.708-9.904-8.071-14.42-2.803-3.005 3.503-9.063-10.582-1.203-18.22 3.605-3.505 6.61 5.605 13.82 4.904 7.21-.699 9.014-17.519 0-21.024 0 0 6.238-19.56 15.251-30.772 2.467-3.07 5.429-7.191 8.43-11.556-1.227-4.432-.672-7.253-.672-7.253z"/><path d="M210.239 496.24s7.661.527 8.112 12.619c0 0 8.563-8.413 1.802-22.079.001 0-7.21-5.255-9.914 9.46zM223.759 449.463s14.422 2.102 5.408 23.127c0 0-.901-13.142-9.915-12.092 0 0 .902-5.779 4.507-11.035zM153.458 509.382s-6.76 15.771 3.605 29.436c0 0 0-15.768 5.858-20.499 0-.001-.901-9.46-9.463-8.937zM179.989 465.092c-3.546 3.415-6.841 7.637-9.107 13.453M392.76 496.24s-7.661.527-8.111 12.619c0 0-8.563-8.413-1.803-22.079 0 0 7.209-5.255 9.914 9.46zM379.241 449.463s-14.423 2.102-5.408 23.127c0 0 .9-13.142 9.914-12.092 0 0-.901-5.779-4.506-11.035zM449.541 509.382s6.761 15.771-3.604 29.436c0 0 0-15.768-5.858-20.499-.001-.001.9-9.46 9.462-8.937z"/><path fill="none" d="M423.011 465.092c3.547 3.415 6.841 7.637 9.107 13.453"/></g><use xlink:href="#a" fill="url(#b)" stroke="#000" stroke-width="3"/></svg>

<?xml version="1.0" encoding="utf-8"?>
<svg version="1.1" width="603" height="763" xmlns="http://www.w3.org/2000/svg" xmlns:xlink="http://www.w3.org/1999/xlink">
  <radialGradient id="a" cx="0" cy="0" r="300" gradientTransform="matrix(1.215 0 0 1.2667 203.3286 244.107331)" gradientUnits="userSpaceOnUse">
    <stop stop-color="#fff" stop-opacity=".31373" offset="0"/>
    <stop stop-color="#fff" stop-opacity=".251" offset=".19"/>
    <stop stop-color="#6b6b6b" stop-opacity=".1255" offset=".6"/>
    <stop stop-opacity=".1255" offset="1"/>
  </radialGradient>
  <g fill="#e20909">
    <path id="s" d="m1.5,1.5v460c0,165.686 134.314,300 300,300c165.685,0 300-134.314 300-300v-460z"/>
  </g>
  <g fill="#fff" stroke="#000" stroke-width="2.75" stroke-linecap="round" stroke-linejoin="round">
    <path d="M198.586,93.683C198.586,93.683 179.779,122.225 203.989,138.251C224.433,151.785 236.197,135.616 259.976,134.958C283.753,134.299 297.156,145.277 297.156,145.277 L 298.885,140.008C298.885,140.008 269.92,121.127 242.683,128.591C215.447,136.055 199.667,114.32 198.586,93.683z"/>
    <path d="M254.354,256.754C253.621,251.708 252.578,245.766 251.215,238.744C251.215,238.744 201.116,235.057 154.647,187.122C108.178,139.188 116.165,129.602 116.165,129.602C116.165,129.602 135.043,117.802 135.043,95.679C135.043,73.555 119.794,59.544 100.917,59.544C82.039,59.544 59.531,70.606 59.531,148.776C59.531,226.945 77.682,358.946 22.5,450.391C22.5,450.391 91.478,446.704 96.56,220.308C96.56,220.308 100.111,225.978 106.974,234.059C109.488,269.244 112.176,381.933 50.817,443.018C50.817,443.018 122.929,445.124 134.344,260.094C137.695,262.649 141.252,265.165 145.024,267.58C145.555,299.726 142.187,382.564 97.286,433.431C97.286,433.431 167.073,431.992 168.433,279.726C173.499,281.774 178.814,283.559 184.373,285.003C185.717,308.243 186.115,372.812 153.194,409.832C153.194,409.832 206.815,411.935 206.977,288.696C212.531,289.084 218.273,289.116 224.206,288.721C225.23,305.942 225.601,349.901 205.471,374.433C205.471,374.433 245.405,358.947 255.571,291.84C259.203,267.867 257.736,258.674 254.354,256.754 z M 506.439,220.308C511.522,446.705 580.5,450.392 580.5,450.392C525.318,358.947 543.47,226.946 543.47,148.777C543.47,70.607 520.961,59.545 502.084,59.545C483.205,59.545 467.957,73.557 467.957,95.68C467.957,117.803 486.835,129.603 486.835,129.603C486.835,129.603 494.823,139.189 448.354,187.123C401.884,235.058 351.786,238.745 351.786,238.745C350.425,245.767 349.381,251.709 348.648,256.755C345.263,258.674 343.796,267.868 347.428,291.841C357.594,358.948 397.529,374.434 397.529,374.434C377.4,349.902 377.769,305.943 378.794,288.722C384.727,289.117 390.47,289.085 396.023,288.697C396.185,411.935 449.806,409.833 449.806,409.833C416.885,372.812 417.285,308.244 418.628,285.004C424.186,283.56 429.502,281.775 434.567,279.727C435.926,431.992 505.714,433.432 505.714,433.432C460.813,382.566 457.444,299.727 457.975,267.581C461.746,265.166 465.305,262.651 468.657,260.095C480.072,445.126 552.183,443.019 552.183,443.019C490.826,381.934 493.512,269.244 496.027,234.06C502.889,225.979 506.439,220.308 506.439,220.308z"/>
    <path d="M240.146,364.564C233.981,386.663 204.605,382.981 204.605,382.981C204.605,382.981 218.386,399.924 241.959,391.821C241.959,391.821 239.42,404.715 257.19,418.71C257.19,418.71 251.815,400.941 257.553,392.928C260.453,388.873 270.971,390.717 277.862,385.191C284.753,379.666 259.366,324.786 259.366,324.786C259.366,324.786 246.311,342.464 240.146,364.564 z M 362.853,364.564C356.688,342.464 343.633,324.784 343.633,324.784C343.633,324.784 318.247,379.664 325.137,385.189C332.029,390.715 342.545,388.872 345.446,392.926C351.185,400.94 345.808,418.708 345.808,418.708C363.58,404.713 361.04,391.819 361.04,391.819C384.612,399.923 398.394,382.979 398.394,382.979C398.394,382.979 369.018,386.663 362.853,364.564z"/>
    <path d="M394.623,553.634C355.414,553.634 322.015,545.521 322.015,502.749C322.015,459.978 354.689,298.478 364.854,269.717C375.019,240.956 359.044,227.682 339.442,227.682C327.408,227.682 320.852,237.401 317.578,244.912C317.037,230.323 319.926,217.03 327.758,210.807C346.214,196.137 348.554,175.875 348.554,175.875C348.954,190.092 366.152,186.436 366.152,186.436C350.154,175.469 358.153,156.783 359.353,140.941C360.553,125.099 355.353,112.514 355.353,112.514C376.914,112.918 374.166,91.628 374.166,91.628C370.459,95.562 359.681,104.629 344.689,94.878C329.697,85.127 314.874,80.68 301.5,83.945C292.984,86.025 289.127,91.275 289.447,95.875C286.883,94.556 279.751,91.683 268.892,93.509C244.468,97.615 251.941,125.179 251.941,125.179C251.941,125.179 254.119,114.855 265.011,111.167C278.314,106.663 294.054,120.017 294.054,136.978C294.054,153.938 265.737,159.102 265.737,159.102C296.233,171.638 307.85,150.252 307.85,150.252C307.85,192.286 272.997,197.449 272.997,197.449C281.711,207.773 291.875,198.186 291.875,198.186C283.986,211.853 283.218,230.028 283.688,241.374C280.021,234.669 273.758,227.683 263.558,227.683C243.953,227.683 227.979,240.956 238.144,269.718C248.309,298.479 280.983,459.979 280.983,502.75C280.983,545.521 247.583,553.635 208.374,553.635C169.166,553.635 154.643,566.908 143.753,587.557C143.753,587.557 182.234,561.746 219.991,577.233C257.747,592.719 291.873,561.01 291.873,561.01C291.873,561.01 290.421,616.317 233.787,617.791C233.787,617.791 267.913,647.292 290.421,611.155C290.421,611.155 285.339,635.493 292.6,648.027C299.861,660.565 301.497,671.456 301.497,671.456C301.497,671.456 303.134,660.565 310.394,648.027C317.654,635.493 312.572,611.155 312.572,611.155C335.082,647.292 369.207,617.791 369.207,617.791C312.572,616.316 311.122,561.01 311.122,561.01C311.122,561.01 345.246,592.719 383.003,577.233C420.76,561.747 459.242,587.557 459.242,587.557C448.354,566.907 433.831,553.634 394.623,553.634z"/>
    <path fill="none" d="M318.156,252.646C317.854,250.004 317.653,247.371 317.56,244.78"/>
    <path fill="none" d="M283.668,240.919C283.921,247.587 284.615,252.019 284.615,252.019"/>
    <path fill="none" d="M355.352,112.514C353.641,112.482 351.775,112.313 349.743,111.985"/>
    <path fill="none" d="M333.235,103.773C333.235,103.773 324.349,106.404 314.032,101.036C307.127,97.443 301.782,106.535 293.988,102.404C291.174,100.913 289.631,98.499 289.447,95.874"/>
    <path fill="none" d="M314.032,101.037C308.871,98.351 304.581,102.752 299.49,103.42 L 299.552,103.835C299.552,103.835 302.377,111.189 311.384,111.189C317.036,111.189 321.274,103.835 321.274,103.835 L 321.218,103.687C318.98,103.175 316.549,102.347 314.032,101.037z"/>
    <path fill="none" d="M307.743,101.096C305.34,101.096 303.393,103.075 303.393,105.513C303.393,107.953 305.339,109.93 307.743,109.93C310.144,109.93 312.092,107.953 312.092,105.513C312.092,103.074 310.145,101.096 307.743,101.096 z M 307.743,108.34C306.205,108.34 304.961,107.075 304.961,105.513C304.961,103.952 306.205,102.686 307.743,102.686C309.28,102.686 310.526,103.952 310.526,105.513C310.526,107.075 309.28,108.34 307.743,108.34z"/>
    <path d="M190.28,486.684C144.912,486.684 95.697,495.005 76.725,498.562 L 68.637,498.562C68.637,498.562 70.033,498.856 72.584,499.355C70.033,499.853 68.637,500.146 68.637,500.146 L 76.725,500.146C95.696,503.705 144.912,512.027 190.28,512.027C247.983,512.027 422.651,518.362 488.151,518.362 L 488.151,480.347C422.651,480.347 247.982,486.684 190.28,486.684z"/>
    <line x1="471.387" y1="480.452" x2="488.15" y2="492.979"/>
    <line x1="471.387" y1="518.083" x2="488.15" y2="505.556"/>
    <path fill="#fcef3c" d="M489.21,481.588 L 488.047,499.53 L 489.21,517.473C489.21,517.473 526.682,507.22 554.443,507.22 L 554.443,491.841C526.682,491.842 489.21,481.588 489.21,481.588z"/>
    <path fill="#fcef3c" d="M546.678,478.826 L 546.678,519.841C546.678,519.841 566.286,518.067 566.286,499.335C566.286,480.603 546.678,478.826 546.678,478.826z"/>
    <path fill="#fcef3c" d="M493.871,550.009C493.871,553.277 491.265,555.925 488.047,555.925 L 488.047,555.925C484.831,555.925 482.223,553.277 482.223,550.009 L 482.223,449.054C482.223,445.787 484.831,443.138 488.047,443.138 L 488.047,443.138C491.265,443.138 493.871,445.787 493.871,449.054 L 493.871,550.009z"/>
    <path d="M133.178,474.691C133.178,474.691 137.685,455.768 153.007,455.768C153.007,455.768 150.754,464.178 148.049,472.064C148.05,472.064 143.544,465.758 133.178,474.691z"/>
    <path d="M469.82,474.691C469.82,474.691 465.314,455.768 449.992,455.768C449.992,455.768 452.246,464.179 454.95,472.064C454.95,472.064 459.455,465.758 469.82,474.691z"/>
    <path d="M445.939,476.443C451.946,479.245 456.752,472.941 454.95,463.128C453.148,453.317 440.171,446.862 436.925,458.221C435.723,462.427 436.925,466.632 432.719,466.632C429.816,466.632 425.417,465.712 423.011,465.092C417.16,459.457 410.624,456.013 406.883,451.213C403.122,446.391 382.587,412.907 370.544,393.87C367.581,393.613 364.415,392.98 361.04,391.82C361.04,391.82 361.594,394.64 360.368,399.074C363.37,403.438 366.332,407.559 368.8,410.63C377.813,421.843 384.049,441.402 384.049,441.402C375.037,444.908 376.838,461.727 384.049,462.426C391.259,463.127 394.265,454.017 397.869,457.522C405.73,465.16 399.671,479.245 396.666,475.742C392.151,470.473 382.847,470.837 382.246,478.545C380.86,496.343 388.256,498.167 395.465,500.974C402.676,503.775 406.28,489.061 408.084,484.855C413.982,471.091 417.698,478.545 421.303,483.454C432.418,498.58 429.716,506.579 428.513,509.383C425.509,516.39 435.122,524.799 445.338,517.792C455.552,510.782 448.942,498.871 444.736,497.47C440.531,496.069 438.126,493.964 432.118,478.546C432.118,478.545 439.93,473.64 445.939,476.443 z M 241.96,391.82C238.585,392.979 235.418,393.613 232.456,393.87C220.413,412.907 199.877,446.391 196.117,451.213C192.377,456.013 185.841,459.456 179.99,465.092C177.584,465.712 173.185,466.632 170.282,466.632C166.076,466.632 167.278,462.427 166.076,458.221C162.83,446.863 149.852,453.318 148.051,463.128C146.248,472.941 151.054,479.245 157.063,476.443C163.072,473.639 170.883,478.545 170.883,478.545C164.874,493.963 162.47,496.067 158.264,497.469C154.058,498.87 147.449,510.782 157.663,517.791C167.878,524.798 177.491,516.389 174.487,509.382C173.285,506.578 170.582,498.579 181.697,483.453C185.302,478.545 189.018,471.091 194.916,484.854C196.719,489.06 200.324,503.774 207.535,500.973C214.745,498.166 222.14,496.342 220.754,478.544C220.153,470.836 210.85,470.473 206.334,475.741C203.329,479.244 197.271,465.159 205.131,457.521C208.736,454.016 211.741,463.126 218.951,462.425C226.161,461.726 227.965,444.906 218.951,441.401C218.951,441.401 225.189,421.841 234.202,410.629C236.669,407.559 239.631,403.438 242.632,399.073C241.405,394.641 241.96,391.82 241.96,391.82z"/>
    <path d="M210.239,496.24C210.239,496.24 217.9,496.767 218.351,508.859C218.351,508.859 226.914,500.446 220.153,486.78C220.154,486.78 212.943,481.525 210.239,496.24z"/>
    <path d="M223.759,449.463C223.759,449.463 238.181,451.565 229.167,472.59C229.167,472.59 228.266,459.448 219.252,460.498C219.252,460.498 220.154,454.719 223.759,449.463z"/>
    <path d="M153.458,509.382C153.458,509.382 146.698,525.153 157.063,538.818C157.063,538.818 157.063,523.05 162.921,518.319C162.921,518.318 162.02,508.859 153.458,509.382z"/>
    <path d="M179.989,465.092C176.443,468.507 173.148,472.729 170.882,478.545"/>
    <path d="M392.76,496.24C392.76,496.24 385.099,496.767 384.649,508.859C384.649,508.859 376.086,500.446 382.846,486.78C382.846,486.78 390.055,481.525 392.76,496.24z"/>
    <path d="M379.241,449.463C379.241,449.463 364.818,451.565 373.833,472.59C373.833,472.59 374.733,459.448 383.747,460.498C383.747,460.498 382.846,454.719 379.241,449.463z"/>
    <path d="M449.541,509.382C449.541,509.382 456.302,525.153 445.937,538.818C445.937,538.818 445.937,523.05 440.079,518.319C440.078,518.318 440.979,508.859 449.541,509.382z"/>
    <path fill="none" d="M423.011,465.092C426.558,468.507 429.852,472.729 432.118,478.545"/>
  </g>
  <use xlink:href="#s" fill="url(#a)" stroke="#000" stroke-width="3"/>
</svg>
